!!!!SEGMENT: pl-kc--40102-iii-1-saf--002-001_zielenski-mikolaj--communiones-totius-anni-in-prima-missa-nativitatis-domini.krn
!!!cenid: 16xx:1532
!!!COM: Zieleński, Mikołaj
!!!COM-rismID: pe30013481
!!!CDT: <1611->1611
!!!CNT: Polish
!!!GTL: Communiones totius anni
!!!OTL: In prima Missa Nativitatis Domini
!!!OMV: 001
!!!PDT: 1611
!!!AGN:
!!!SMS-siglum: PL-Kc
!!!SMS-shelfmark: 40102 III/1 Saf.
!!!SMS-shelfwork: 002-001 G
!!!SMS-variant:
!!!SMS-altvar:
!!!NIFC-rismSourceID: 990069887
!!!NIFC-rismChildID: 990069887
!!!NIFC-islandoraID: none
!!!URL-pdf-islandora:
!!!URL-scan: https://cyfrowe.mnk.pl/dlibra/publication/24235/edition/23926/content?ref=desc @EN{Scan on The National Museum in Krakow Website} @PL{Skany w portalu Biblioteka Cyfrowa Muzeum Narodowego w Krakowie}
!!!IIIF:
!!!ONB-nifc: UWAGA: str. 46. Uwaga: W xml metrum 2/1 do źródłowego C| i odpowiednio 3/1 do 3/2
!!!AIN: 4 organ
!!!key:
**kern	**kern	**kern	**kern
*group1	*group1	*group1	*group1
*part4	*part3	*part2	*part1
*staff4	*staff3	*staff2	*staff1
*I""Organo	*I""Organo	*I""Organo	*I""Organo
*I''org	*I''org	*I''org	*I''org
*Iorgan	*Iorgan	*Iorgan	*Iorgan
*ICklav	*ICklav	*ICklav	*ICklav
*clefC4	*clefC3	*clefC2	*clefG2
*k[]	*k[]	*k[]	*k[]
*d:	*d:	*d:	*d:
*M2/1	*M2/1	*M2/1	*M2/1
*met(C|)	*met(C|)	*met(C|)	*met(C|)
=1	=1	=1	=1
!LO:TX:a:t=Al o Conserto, trium ŭocum, Communio, 25.	!	!	!LO:TX:a:t=Iu prima Miſſa Natiuitbtis Domini. Solus Tenor canet cum Orgauo.
00r	1r	1.a	0r
.	1d	.	.
.	.	2a\	.
=2-	=2	=2-	=2-
.	2d\	2.a\	1dd
.	.	.	.
.	2.d\	.	.
.	.	4a\	.
.	.	2f\	2dd\
.	4d\	.	.
.	2d\	[<2f\	[y2dd\
=3	=3	=3	=3
!	!	!	!LO:N:xstem:cue
1r	2B-X/	2f\]	4dd\]
.	.	.	4dd\
.	2B-/	4e/	2dd\
.	.	4d/	.
1A	4A/	2e/	2cc\
.	4B-/	.	.
.	4c/	2.a\	2.cc\
.	4d\	.	.
=4-	=4-	=4-	=4-
2A/	4e\	.	.
.	4A/	4g\	4b/
2.A/	2.d\	2f\	4a/
.	.	.	4g/
.	.	1e	1a
4A/	8c#X/	.	.
.	8Bny/	.	.
2A/	2c#/	.	.
=5	=5	=5	=5
2F/	2d\	2d/	1a
2F/	1f	2.a\	.
2D/	.	.	1r
.	.	8g\	.
.	.	8a\	.
2d\	2f\	2b-X\	.
=6-	=6-	=6-	=6-
2d\	4a\	2f\	2r
.	4g\	.	.
2.d\	4f\	1a	1dd
.	4e\	.	.
.	2f\	.	.
4d\	.	.	.
2d\	2f\	2bny\	2ff\
=7	=7	=7	=7
2c\	4g\	2cc\	2ee\
.	4f\	.	.
2c\	4e\	2g\	2ee\
.	4d\	.	.
1A	2c/	4cc\	4ee\
.	.	4b\	4dd\
.	2c/	4a\	4cc\
.	.	4g\	4b/
=8-	=8-	=8-	=8-
1r	2.d\	2.f\	2a/
.	.	.	2.aa\
.	4e\	4g\	.
1d	4f\	1a	.
.	4e\	.	4gg\
.	4f\	.	4ff\
.	4g\	.	4ee\
=9	=9	=9	=9
2d\	2a\	2r	2dd\
2.d\	1f	1a	1ff
4d\	.	.	.
2d\	2f\	2b\	4ee\
.	.	.	4dd\
=10-	=10-	=10-	=10-
2c\	2g\	2cc\	2.ee\
2c\	1e	2g\	.
.	.	.	4dd\
2A/	.	2a\	4cc\
.	.	.	4b/
[<2d\	2f\	[<2a\	2a/
=11	=11	=11	=11
!LO:TX:t=P:problem=brak zakończenia ligatury	!	!	!
2d\]	2f\	2a\]	2dd\
2c\	2g\	2.cc\	2ee\
2F/	2a\	.	2ff\
.	.	4cc\	.
2B\	2d\	2g\	4ee\
.	.	.	4dd\
=12-	=12-	=12-	=12-
1A	2f\	1a	8cc\
.	.	.	8a/
.	.	.	2dd\
.	2e\	.	.
.	.	.	4cc#X\
1D	2d\	2.f#X\	2.dd\
.	2d\	.	.
.	.	4f#\	4a/
=13	=13	=13	=13
0r	4.G/	4.g\	4.b-X/
.	8G/	8g\	8b-/
.	4d\	4f\	4a/
.	4A/	4e/	4a/
.	4.B-X/	4d/	4f/
.	.	2d/	4g/
.	8B-/	.	.
.	2A/	.	4a/
.	.	4c#X/	4ee\
=14-	=14-	=14-	=14-
1r	4r	8d/	4.ff\
.	.	8e/	.
.	4d\	8f\	.
.	.	8g\	8ff\
.	4.c#X/	8a\	2ee\
.	.	8e\	.
.	.	8a\	.
.	8c#/	8g\	.
2r	2d\	8f\	4r
.	.	8e\	.
.	.	4f\	4dd\
2A/	2e\	4e/	4.cc#X\
.	.	[<4a\	.
.	.	.	8cc#\
=15	=15	=15	=15
4.B-X\	4r	4a\]	2dd\
.	4d\	4g\	.
8B-\	.	.	.
2A/	4.c/	4a\	2r
.	.	4e/	.
.	8c/	.	.
4r	2B-X/	4.g\	1r
4G/	.	.	.
.	.	8g\	.
4.E/	4A/	2a\	.
.	8d\	.	.
8F#/	8c\	.	.
=16-	=16-	=16-	=16-
2F#/	8B-X/	4d/	4r
.	8A/	.	.
.	8Bny/	4b\	4gg\
.	8G/	.	.
4r	4d\	4.a\	4.ff#X\
4d\	4d\	.	.
.	.	8a\	8ff#\
!LO:SIC:v:s=4G/	!	!	!
4Fny/	4e\	4e/	4gg\
4A/	4f\	4a\	4cc\
4.B-X\	2d\	4f\	4.dd\
.	.	4g\	.
8B-\	.	.	8dd\
=17	=17	=17	=17
2A/	2c/	2e/	4ee\
.	.	.	4cc\
2F/	2c/	2a\	4ff\
.	.	.	2ff\
2c\	[y1c	2.g\	.
.	.	.	8ee\
.	.	.	8dd\
2C/	.	.	2ee\
!	!	!LO:TX:t=P:problem=zła wysokość custosa	!
.	.	4g\	.
*custos:F	*custos:d	*custos:a	*custos:ff
!!LO:LB:g=original
=18-	=18-	=18-	=18-
!	!LO:N:vis=xstem:cue	!	!
1F	2c\]	2f\	2ff\
.	4r	2a\	2dd\
.	4d\	.	.
2r	4.c#X/	2e/	2ee\
.	8c#/	.	.
4r	2d\	2f\	2a/
4D/	.	.	.
=19	=19	=19	=19
4.C#X/	2e\	2r	2.a/
8C#/	.	.	.
2D/	4f\	4r	.
.	4d\	4dd\	4ff\
2r	2a\	4.cc#X\	4.ee\
.	.	8cc#\	8ee\
2d\	4d\	4dd\	4ff\
.	4f\	2a\	4dd\
=20-	=20-	=20-	=20-
4.c#X\	4.e\	.	2ee\
.	.	4a\	.
8c#\	8e\	.	.
4d\	4f\	2a\	8a/
.	.	.	8b/
4A/	4.c/	.	8cc\
.	.	.	8dd\
4cny\	.	4g\	8ee\
.	8d\	.	8ff\
4c\	8e\	2a\	4ee\
.	8c\	.	.
!	!LO:N:vis=8	!	!
4.B-X\	4f\	.	4.dd\
.	.	.	.
.	8e\	4g\	.
8B-\	8d\	.	8dd\
=21	=21	=21	=21
2A/	2e\	2a\	2cc\
1F	1f	1a	4a/
.	.	.	4b/
.	.	.	4cc\
.	.	.	4a/
4E/	2f\	2a\	2.dd\
4D/	.	.	.
=22-	=22-	=22-	=22-
2A/	1e	1a	.
.	.	.	8cc#X\
.	.	.	8b\
2A/	.	.	2cc#\
1D	2.d\	2a\	2dd\
.	.	4r	2aa\
.	4d\	4a\	.
=23	=23	=23	=23
1r	4a\	4cc\	4ee\
.	4e\	4ee\	4gg\
.	4f\	4a\	2ff\
.	8e\	2dd\	.
.	8d\	.	.
2r	2.a\	.	2ee\
.	.	4cc#X\	.
2d\	.	4dd\	4dd\
.	4f\	2a\	2ff\
=24-	=24-	=24-	=24-
4A/	4c/	.	.
4c\	4e\	4g\	2ee\
4G/	4g\	4b-X\	.
4B-X\	4d\	4g\	4dd\
1A	4f\	2.a\	4.cc\
.	8e\	.	.
.	8d\	.	8dd\
.	4c/	.	4ee\
.	4f\	4a\	4a/
=25	=25	=25	=25
2r	4e\	4g\	4cc\
.	2d\	4f\	4dd\
2A/	.	2.e/	4.ee\
.	2c/	.	.
.	.	.	8ff\
4E/	.	.	4gg\
4G/	4B/	2d/	4dd\
4D/	4.A/	.	4ff\
4F/	.	4a\	4cc\
.	8A/	.	.
=26-	=26-	=26-	=26-
2E/	4c/	4g#X\	4ee\
.	8B/	2a\	4.ee\
.	8A/	.	.
2E/	4B/	.	.
.	.	.	8dd\
.	4e\	4g#X\	4b/
2A/	2.e\	2.a\	2cc#X\
4r	.	.	2ee\
4c\	4e\	4g#\	.
=27	=27	=27	=27
4G/	4g\	2b-X\	2dd\
4B-X\	4d\	.	.
4F/	4f\	2a\	2cc\
4A/	4c/	.	.
2E/	4.e\	1g	2.b/
.	16d\	.	.
.	16c\	.	.
2G/	4B/	.	.
.	4e\	.	4cc#X\
=28-	=28-	=28-	=28-
4D/	4f\	4.f\	4dd\
4F/	4c/	.	4a/
.	.	8f\	.
4C/	4g\	4cc\	4ee\
4D/	4f\	4a\	2dd\
2E/	4.e\	4g#X\	.
.	.	2a\	4ccny\
.	8e\	.	.
2E/	4d\	.	2b/
.	4B/	4g#X\	.
=29	=29	=29	=29
1A	2.c#X/	1.a	2a/
.	.	.	2ee\
.	4c#/	.	.
2r	2.d\	.	2.ff\
2D/	.	2a\	.
.	4d\	.	4ff\
=30-	=30-	=30-	=30-
2A/	4e\	2cc\	2ee\
.	4cny/	.	.
2G/	4d\	2b\	4r
.	4B/	.	4gg\
2F/	4c/	4.a\	4cc\
.	4A/	.	4dd\
.	.	8a\	.
2E/	4B/	4g\	4ee\
.	4G/	4e/	4gg\
=31	=31	=31	=31
2D/	4A/	1.a	4ff\
.	4B/	.	4dd\
2A/	4c/	.	2.ee\
.	8B/	.	.
.	8c/	.	.
2F/	2d\	.	.
.	.	.	4dd\
4E/	2f\	2a\	2.dd\
4D/	.	.	.
=32-	=32-	=32-	=32-
1A	1e	1a	.
.	.	.	8cc#X\
.	.	.	8b\
.	.	.	2cc#\
2D/	2.f\	2.a\	1dd
[<2d\	.	.	.
.	4g\	4g\	.
*custos:d	*custos:a	*custos:f	*custos:dd
!!LO:LB:g=original
=33	=33	=33	=33
!LO:TX:t=P:problem=brak zakończenia ligatury	!	!	!
2d\]	4a\	2f\	00dd
.	4g\	.	.
2d\	4f\	2a\	.
.	4e\	.	.
2.B-\	1d	2g\	.
.	.	2f\	.
4A/	.	.	.
=34-	=34-	=34-	=34-
2G/	2.g\	2.b-X\	.
1B-X	.	.	.
.	8f\	8a\	.
.	8e\	8g\	.
.	4d\	4f\	.
.	4e\	4g\	.
2F/	4f\	2a\	.
.	4e\	.	.
=35	=35	=35	=35
0G	4d\	2b-X\	0.dd
.	4c\	.	.
.	4B-X/	1g	.
.	4A/	.	.
.	4B-X/	.	.
.	4G/	.	.
.	1g	1b-X\	.
=36-	=36-	=36-	=36-
1d	.	.	.
.	4f#X\	4a\	.
.	4e\	4g\	.
1Dl	1f#Xl	1al	1ddl
==	==	==	==
*-	*-	*-	*-
!!!system-decoration: *
!!!RDF**kern: < = below
!!!RDF**kern: l = terminal long
!!!ENC: Anastazja Marusiak
!!!END: 2021-12-16
!!!ENC: Marta Lawrence
!!!END: 2021-12-21
!!!YEC: Copyright 2022 Narodowy Instytut Fryderyka Chopina (https://polishscores.org)
!!!YEM: License CC-BY-4.0 (https://creativecommons.org/licenses/by/4.0)
